X:1
T:Thompson's Reel
M:C|
L:1/8
R:Reel
S:O'Neill - Dance Music of Ireland: 1001 Gems (1907), No. 593
Z:AK/Fiddler's Companion
K:G Minor
dc|:BGFD DC C2|DGG^F GABc|1 dBcA BGAF|DGG^F GBdc:|2 dBcA BGAF|
DGG^F G2G2||(3BcB dB fBbB|(3BcB df gdfd|(3BcB dB fBbB|c=Bcd _BG G2|
(3BcB dB fBbB|(3BcB df gdfd|b2 bg fdcd|DGG^F G2||
